X:1
T:When Your Old Wedding Ring Was New
T:When Your Old Wedding Ring Was New
C:Charles McCarthy
Z:All Rights Reserved
L:1/4
M:3/4
K:Eb
V:1 treble nm="Piano" snm="Pno."
%%MIDI program 0
V:1
 z2 G/F/ |"Eb" E G e |"Bb+" d2 B |"Eb" G3- | G2"Bb7" G/F/ |"Eb" E G e |"Bb+" d2 B |"Ab" A3- | %8
w: When your|old wed- ding|ring was|new,|_ and each|dream that we|dreamed came|true,|
 A2 F/G/ |"Fm7" A A A |"Bb7" A2 G/A/ |"Eb" B B"Bbm" B |"C7" B2 =B/c/ |"F7" d d d | d c3/2 F/ | %15
w: _ I re-|mem- ber with|pride how we|stood side by|side, what a|beau- ti- ful|pic- ture you|
"Bb7" c"Bbdim" =E"Bb" F |"Bb7" B2 G/F/ |"Eb" E G e |"Bb+" d2 B |"Eb" G3- | G2"Bb7" G/F/ | %21
w: made as my|bride. Ev- en|tho' sil- ver|crowns your|hair,|_ I can|
"Eb" E D E |"Eb7" e B"Eb+7" =B |"Ab" c3- | c2"Fm7" A/G/ |"Ab" F G A |"Cdim" d2 c/_c/ | %27
w: still see those|gold ring- lets|there.|_ Love's old|flame is the|same as the|
"Eb" B3/2 =A/ B/=B/ |"C7" c2"E" =B/c/ |"F7" e c e |"Bb7" c2 B |1"Eb" e3 ||"Bb7" B2 G/F/ :|2 %33
w: day I changed your|name, When your|old wed- ding|ring was|new.|* When your|
"Eb" e3 |] %34
w: new.|

